X:1
T:Mother, Make My Bed Soon
M:6/8
L:1/8
K:G
 GABc-B A|B-G F G2 G| GABc-B A| BGG G2 G| GGG DD D/2D/2| EDC DEF| GABD-E F|\
 GFE D2 z|
